svgs/1F637.svg

<svg xmlns="http://www.w3.org/2000/svg" xmlns:xlink="http://www.w3.org/1999/xlink" preserveAspectRatio="none" viewBox="0 0 72 72"><defs><path id="a" fill="#FCC21B" d="M127.85 93.35q0-27-8.5-47.05-15.6-36.65-55.3-36.65Q24.4 9.65 8.8 46.3.3 66.35.3 93.35q0 10.4 18.7 17.7 18.65 7.35 45.05 7.35 26.45 0 45.1-7.35 18.7-7.3 18.7-17.7z"/><path id="b" fill="#EEE" d="M5.85 83.7v.45q8.159 2.588 18.65 4.15 6.65.95 11.85 1.25h.2q1.2 0 2.05-.8.9-.85.95-2.05.05-1.25-.8-2.15-.8-.9-2.05-1-4.7-.25-11.05-1.2-11.372-1.656-19.7-4.55-.1 2.925-.1 5.9m30.7-13.25q1.1 0 1.95-.7.8-.7 1-1.8.2-1.25-.55-2.25-.7-1-1.9-1.25-4.65-.75-10.95-2.75-9.764-3.034-17.35-7.35-.634 3.056-1.15 6.2 7.398 4.004 16.5 6.9 6.7 2.1 11.95 3h.5M99.7 86.7q.1 1.2.95 2.05.9.8 2.05.8l.2-.05q3.45 0 11.85-1.25 10.47-1.519 18.65-4.15v-.4q0-2.966-.1-5.85-8.312 2.848-19.65 4.5-11 1.2-11.1 1.2-1.25.1-2.05 1-.85.9-.8 2.15m3-16.25h.55q.4-.05 11.9-3 9.11-2.888 16.5-6.9-.515-3.118-1.2-6.15-7.517 4.287-17.25 7.35-10.85 2.75-10.95 2.75-1.25.25-1.95 1.25t-.5 2.2q.2 1.1 1 1.8.85.7 1.9.7z"/><path id="c" fill="#FFF" d="M99.05 67.4q-2.9-2.5-7.05-2-28 3.25-56.05 0-4.15-.5-7.05 2Q26 69.9 26 74v25q0 4.2 2.9 7.55 2.95 3.35 7.05 3.85 28.05 3.25 56.05 0 4.15-.5 7.1-3.85Q102 103.2 102 99V74q0-4.1-2.95-6.6z"/><path id="d" fill="none" stroke="#2F2F2F" stroke-linecap="round" stroke-linejoin="round" stroke-width="3" d="M42.5 28.15l13.75 2.4m-26.7-2.4l-13.75 2.4"/></defs><use transform="scale(.5625)" xlink:href="#a"/><use transform="translate(-3.1 5.4) scale(.5625)" xlink:href="#b"/><use transform="scale(.5625)" xlink:href="#c"/><use xlink:href="#d"/></svg>

<svg xmlns="http://www.w3.org/2000/svg" version="1.1" xmlns:xlink="http://www.w3.org/1999/xlink" preserveAspectRatio="none" x="0px" y="0px" width="72px" height="72px" viewBox="0 0 72 72">
<defs>
<g id="Layer0_0_FILL">
<path fill="#FCC21B" stroke="none" d="
M 127.85 93.35
Q 127.85 66.35 119.35 46.3 103.75 9.65 64.05 9.65 24.4 9.65 8.8 46.3 0.3 66.35 0.3 93.35 0.3 103.75 19 111.05 37.65 118.4 64.05 118.4 90.5 118.4 109.15 111.05 127.85 103.75 127.85 93.35 Z"/>
</g>

<g id="An_1F637_svg_Layer_1__Clip_Group__0_Layer0_0_FILL">
<path fill="#EEEEEE" stroke="none" d="
M 5.85 83.7
Q 5.85 83.9259765625 5.85 84.15 14.008984375 86.73828125 24.5 88.3 31.15 89.25 36.35 89.55
L 36.55 89.55
Q 37.75 89.55 38.6 88.75 39.5 87.9 39.55 86.7 39.6 85.45 38.75 84.55 37.95 83.65 36.7 83.55 32 83.3 25.65 82.35 14.278125 80.6935546875 5.95 77.8 5.85 80.725 5.85 83.7
M 36.55 70.45
Q 37.65 70.45 38.5 69.75 39.3 69.05 39.5 67.95 39.7 66.7 38.95 65.7 38.25 64.7 37.05 64.45 32.4 63.7 26.1 61.7 16.336328125 58.6658203125 8.75 54.35 8.1162109375 57.40625 7.6 60.55 14.9984375 64.5541015625 24.1 67.45 30.8 69.55 36.05 70.45
L 36.55 70.45
M 99.7 86.7
Q 99.8 87.9 100.65 88.75 101.55 89.55 102.7 89.55
L 102.9 89.5
Q 106.35 89.5 114.75 88.25 125.2208984375 86.73125 133.4 84.1 133.4 83.9138671875 133.4 83.7 133.4 80.7337890625 133.3 77.85 124.9880859375 80.6984375 113.65 82.35 102.65 83.55 102.55 83.55 101.3 83.65 100.5 84.55 99.65 85.45 99.7 86.7
M 102.7 70.45
L 103.25 70.45
Q 103.65 70.4 115.15 67.45 124.260546875 64.562109375 131.65 60.55 131.134765625 57.4322265625 130.45 54.4 122.9328125 58.68671875 113.2 61.75 102.35 64.5 102.25 64.5 101 64.75 100.3 65.75 99.6 66.75 99.8 67.95 100 69.05 100.8 69.75 101.65 70.45 102.7 70.45 Z"/>
</g>

<g id="Layer0_2_FILL">
<path fill="#FFFFFF" stroke="none" d="
M 99.05 67.4
Q 96.15 64.9 92 65.4 64 68.65 35.95 65.4 31.8 64.9 28.9 67.4 26 69.9 26 74
L 26 99
Q 26 103.2 28.9 106.55 31.85 109.9 35.95 110.4 64 113.65 92 110.4 96.15 109.9 99.1 106.55 102 103.2 102 99
L 102 74
Q 102 69.9 99.05 67.4 Z"/>
</g>

<path id="Layer0_3_1_STROKES" stroke="#2F2F2F" stroke-width="3" stroke-linejoin="round" stroke-linecap="round" fill="none" d="
M 42.5 28.15
L 56.25 30.55
M 29.55 28.15
L 15.8 30.55"/>
</defs>

<g id="Layer_1">
<g transform="matrix( 0.5625, 0, 0, 0.5625, 0,0) ">
<use xlink:href="#Layer0_0_FILL"/>
</g>

<g transform="matrix( 0.5625, 0, 0, 0.5625, -3.1,5.4) ">
<g transform="matrix( 1, 0, 0, 1, 0,0) ">
<use xlink:href="#An_1F637_svg_Layer_1__Clip_Group__0_Layer0_0_FILL"/>
</g>
</g>

<g transform="matrix( 0.5625, 0, 0, 0.5625, 0,0) ">
<use xlink:href="#Layer0_2_FILL"/>
</g>

<g transform="matrix( 1, 0, 0, 1, 0,0) ">
<use xlink:href="#Layer0_3_1_STROKES"/>
</g>
</g>
</svg>
